vendor/shopware/storefront/Resources/app/storefront/dist/assets/icon/default/x-wide.svg

<svg xmlns="http://www.w3.org/2000/svg" width="24" height="24" viewBox="0 0 24 24">
  <path fill="#758CA3" fill-rule="evenodd" d="M6.58578644,12 L2,7.41421356 C1.21895142,6.63316498 1.21895142,5.36683502 2,4.58578644 L4.58578644,2 C5.36683502,1.21895142 6.63316498,1.21895142 7.41421356,2 L12,6.58578644 L16.5857864,2 C17.366835,1.21895142 18.633165,1.21895142 19.4142136,2 L22,4.58578644 C22.7810486,5.36683502 22.7810486,6.63316498 22,7.41421356 L17.4142136,12 L22,16.5857864 C22.7810486,17.366835 22.7810486,18.633165 22,19.4142136 L19.4142136,22 C18.633165,22.7810486 17.366835,22.7810486 16.5857864,22 L12,17.4142136 L7.41421356,22 C6.63316498,22.7810486 5.36683502,22.7810486 4.58578644,22 L2,19.4142136 C1.21895142,18.633165 1.21895142,17.366835 2,16.5857864 L6.58578644,12 Z M3.41421356,18 L6,20.5857864 L12,14.5857864 L18,20.5857864 L20.5857864,18 L14.5857864,12 L20.5857864,6 L18,3.41421356 L12,9.41421356 L6,3.41421356 L3.41421356,6 L9.41421356,12 L3.41421356,18 Z"/>
</svg>

<svg xmlns="http://www.w3.org/2000/svg" width="24" height="24" viewBox="0 0 24 24"><path fill="#758CA3" fill-rule="evenodd" d="M6.5858 12 2 7.4142c-.781-.781-.781-2.0474 0-2.8284L4.5858 2c.781-.781 2.0474-.781 2.8284 0L12 6.5858 16.5858 2c.781-.781 2.0474-.781 2.8284 0L22 4.5858c.781.781.781 2.0474 0 2.8284L17.4142 12 22 16.5858c.781.781.781 2.0474 0 2.8284L19.4142 22c-.781.781-2.0474.781-2.8284 0L12 17.4142 7.4142 22c-.781.781-2.0474.781-2.8284 0L2 19.4142c-.781-.781-.781-2.0474 0-2.8284L6.5858 12zm-3.1716 6L6 20.5858l6-6 6 6L20.5858 18l-6-6 6-6L18 3.4142l-6 6-6-6L3.4142 6l6 6-6 6z"/></svg>
